melody-of-light/img/icons/icomoon/exemplary.svg

<svg width="18" height="15" viewBox="0 0 18 15" fill="none" xmlns="http://www.w3.org/2000/svg">
<path fill-rule="evenodd" clip-rule="evenodd" d="M8.20018 0.0643708C8.85002 -0.0648897 9.52359 0.00145152 10.1357 0.255005C10.7479 0.508559 11.2711 0.937936 11.6392 1.48884C12.0073 2.03975 12.2037 2.68743 12.2037 3.35C12.2037 3.68137 11.9351 3.95 11.6037 3.95C11.2724 3.95 11.0037 3.68137 11.0037 3.35C11.0037 2.92477 10.8776 2.50909 10.6414 2.15553C10.4051 1.80196 10.0694 1.52639 9.6765 1.36366C9.28364 1.20093 8.85135 1.15835 8.43429 1.24131C8.01723 1.32427 7.63414 1.52904 7.33345 1.82972C7.03277 2.1304 6.828 2.5135 6.74505 2.93056C6.66209 3.34762 6.70466 3.77991 6.86739 4.17277C7.03012 4.56563 7.30569 4.90142 7.65926 5.13766C8.01282 5.37391 8.4285 5.5 8.85373 5.5C9.18511 5.5 9.45373 5.76863 9.45373 6.1V7.60397L17.081 12.4577C17.3279 12.6147 17.5172 12.8475 17.6205 13.1213C17.7238 13.3951 17.7354 13.695 17.6536 13.976C17.5719 14.257 17.4011 14.5038 17.1671 14.6795C16.933 14.8551 16.6483 14.95 16.3557 14.95M8.25373 7.60397V6.64583C7.80494 6.56413 7.37539 6.39121 6.99257 6.13542C6.44167 5.76732 6.01229 5.24412 5.75874 4.63199C5.50518 4.01986 5.43884 3.34629 5.5681 2.69645C5.69736 2.04661 6.01642 1.4497 6.48493 0.981194C6.95343 0.512688 7.55035 0.193631 8.20018 0.0643708M8.25373 7.60397L0.626502 12.4577C0.379558 12.6147 0.190229 12.8475 0.0869637 13.1213C-0.0163017 13.3951 -0.0279266 13.695 0.0538363 13.976C0.135599 14.257 0.306333 14.5038 0.540385 14.6795C0.774424 14.8551 1.05913 14.95 1.35173 14.95C1.35172 14.95 1.35175 14.95 1.35173 14.95H16.3557M8.85373 8.64452L1.27053 13.4702C1.24282 13.4878 1.22135 13.5141 1.20976 13.5448C1.19817 13.5755 1.19687 13.6092 1.20604 13.6407C1.21522 13.6722 1.23437 13.6999 1.26064 13.7196C1.2869 13.7394 1.31884 13.75 1.35168 13.75H16.3557C16.3886 13.75 16.4206 13.7394 16.4468 13.7196C16.4731 13.6999 16.4923 13.6722 16.5014 13.6407C16.5106 13.6092 16.5093 13.5755 16.4977 13.5448C16.4861 13.5141 16.4649 13.488 16.4372 13.4703L8.85373 8.64452Z" fill="#212123"/>
</svg>

<svg width="18" height="15" fill="none" xmlns="http://www.w3.org/2000/svg"><path fill-rule="evenodd" clip-rule="evenodd" d="M8.2.064a3.35 3.35 0 014.004 3.286.6.6 0 11-1.2 0 2.15 2.15 0 10-2.15 2.15.6.6 0 01.6.6v1.504l7.627 4.854a1.352 1.352 0 01-.725 2.492M8.254 7.604v-.958A3.35 3.35 0 018.2.064m.054 7.54L.627 12.458a1.352 1.352 0 00.725 2.492h15.004M8.854 8.645L1.27 13.47a.152.152 0 00-.065.17.152.152 0 00.146.11h15.004a.151.151 0 00.145-.11.151.151 0 00-.064-.17L8.854 8.645z" fill="#212123"/></svg>
